X:1
T:Title
%%score { ( 1 3 ) | ( 2 4 ) }
L:1/8
Q:1/4=100
M:6/4
K:F
V:1 treble nm="Grand Piano"
V:3 treble 
V:2 bass 
V:4 bass 
V:1
 A2 A2 A2 c4 B2 | [GB]6 [FA]6 | [B,EG]2 [B,EG]2 [EB]2 [Ed]4 [Ec]2 | c6 A6 | F2 G2 A2 c4 A2 | %5
w: R.~Menthal * * * *|||||
 [B,DG]2 [C^FA]2 [DGB]2 [EB]4 [FA]2 | [B,DG]2 [B,DF]2 [DF]2 .[CFA]4 [B,EG]2 | %7
w: ||
[M:10/4] [F,A,F]12 z8 |[M:6/4] [DF]12 | [F,A,CF]12 |] %10
w: |||
V:2
 [F,CF]2 [F,CF]2 [F,CF]2 [F,DF]4 [F,DF]2 | E,6 F,6 | C,2 C,2 [C,G,]2 [C,B,]4 [C,B,]2 | %3
 [F,F]6- [F,CF]6 | [F,A,]2 [F,B,F]2 [F,CF]2 [F,F]4- [F,CF]2 | B,,2 A,,2 G,,2 C,4 F,2 | %6
 B,,2 B,,2 B,,2 z2 D2 C,2 |[M:10/4] F,,12 z8 |[M:6/4] z6 F,6 | F,,12 |] %10
V:3
 x12 | C12 | x12 | x12 | x12 | z6 C6 | x12 |[M:10/4] x20 |[M:6/4] B,6 z6 | x12 |] %10
V:4
 x12 | x12 | x12 | A,6 z6 | z6 .A,6 | x12 | z6 .C,6 |[M:10/4] x20 |[M:6/4] B,,12 | x12 |] %10

